icons/animal_pig.svg

<svg width="48" height="48" viewBox="0 0 48 48" fill="none" xmlns="http://www.w3.org/2000/svg">
<path d="M13 22C13.5523 22 14 21.5523 14 21C14 20.4477 13.5523 20 13 20C12.4477 20 12 20.4477 12 21C12 21.5523 12.4477 22 13 22Z" fill="black"/>
<path fill-rule="evenodd" clip-rule="evenodd" d="M42 13.1248C42 12.266 41.6744 11.5451 41.1258 11.0463C40.5939 10.5627 39.909 10.3384 39.2525 10.3367C38.596 10.335 37.9089 10.5561 37.3749 11.0407C36.824 11.5406 36.5 12.2639 36.5 13.125C36.5 13.9762 36.8005 14.6848 37.3878 15.1846C37.5954 15.3612 37.824 15.4989 38.0617 15.6067C37.7381 15.8363 37.4262 16.0301 37.1689 16.1796C35.3521 14.2183 32.8115 13 30 13C29.4736 13 28.9567 13.0427 28.4523 13.125H20.2082C16.5443 13.125 14.1862 13.6257 12.5609 14.4101C10.6399 13.5302 9.14478 13.4291 7.25843 14.1126C6.63973 14.3367 5.97894 14.6453 5.24723 15.0385C5.86959 15.5461 6.40485 16.0105 6.87143 16.4525C7.61395 17.1558 8.18256 17.8023 8.65155 18.4756C7.67851 20.1072 6.66649 21.736 4 22.7497V27.1186C5.9798 29.0663 9.97194 30.41 13.1076 29.9713C13.6817 31.3115 14.718 32.0975 16 32.5314V36C15.4477 36 15 36.4477 15 37V38H19V32.9948C20.7203 33.0377 22.5601 32.8122 24.2069 32.6103C24.4386 32.5819 24.6665 32.554 24.8898 32.5273C26.3853 33.4627 28.1329 34 30 34C30.3375 34 30.6711 33.9824 31 33.9482V36C30.4477 36 30 36.4477 30 37V38H34V33.1263C37.5318 31.506 40 27.8057 40 23.5C40 21.3909 39.4077 19.4269 38.3883 17.7816C38.7479 17.5643 39.1781 17.2825 39.6118 16.9471C39.9554 16.6813 40.314 16.3722 40.6452 16.0243C40.8168 16.0245 40.9862 16.022 41.1514 16.0182C41.4177 16.0121 41.6639 16.0031 41.8981 15.9946C42.2462 15.9819 42.5676 15.9702 42.8885 15.9702C43.4408 15.9702 43.8885 15.5225 43.8885 14.9702C43.8885 14.418 43.4408 13.9702 42.8885 13.9702C42.5778 13.9702 42.2264 13.9816 41.88 13.9938C41.956 13.7185 42 13.4283 42 13.1248ZM40 13.1248C40 13.3757 39.9133 13.6613 39.7184 13.9811C39.6531 13.9739 39.5893 13.9657 39.5273 13.9563C39.0675 13.8869 38.813 13.7712 38.684 13.6614C38.601 13.5908 38.5 13.4704 38.5 13.125C38.5 12.7894 38.6135 12.6174 38.7189 12.5218C38.8411 12.4109 39.029 12.3361 39.2475 12.3367C39.466 12.3372 39.6561 12.4131 39.7804 12.5262C39.8881 12.624 40 12.796 40 13.1248ZM23.9108 30.6317C23.5112 29.544 23.4451 28.2573 23.5007 26.858C23.5226 26.3062 23.9877 25.8766 24.5396 25.8985C25.0914 25.9204 25.521 26.3855 25.4991 26.9374C25.4241 28.8267 25.6295 29.9173 26.1328 30.5948C26.3798 30.9272 26.8918 31.3191 27.4737 31.5526C27.5138 31.5686 27.5523 31.5871 27.5891 31.6076C28.3503 31.8629 29.1599 32 30 32C34.3274 32 38 28.2875 38 23.5C38 18.7125 34.3274 15 30 15C29.582 15 29.1728 15.0339 28.7743 15.0989L28.6143 15.125H20.2082C16.6997 15.125 14.6782 15.609 13.4301 16.2113L12.5831 16.6201L11.728 16.2284C10.6695 15.7436 9.93653 15.6172 9.24049 15.6808C9.15111 15.689 9.05935 15.7006 8.96469 15.7159C9.46716 16.2453 9.9044 16.775 10.2927 17.3325L11.0303 18.3915L10.3693 19.5C9.48936 20.9755 8.40067 22.7611 6 24.0371V26.1954C6.70182 26.7092 7.64673 27.188 8.73049 27.5352C10.1531 27.9909 11.6267 28.159 12.8305 27.9906L14.3441 27.7789L14.9459 29.1837C15.3553 30.1391 16.2326 30.7116 17.9591 30.92C19.7122 31.1315 21.8048 30.8896 23.9108 30.6317Z" fill="black"/>
</svg>

<svg
  xmlns="http://www.w3.org/2000/svg"
  width="24"
  height="24"
  viewBox="0 0 24 24"
  fill="none"
  stroke="currentColor"
  stroke-width="2"
  stroke-linecap="round"
  stroke-linejoin="round"
>
  <path d="M13 22a1 1 0 1 0 0-2 1 1 0 0 0 0 2" />
  <path
    fill-rule="evenodd"
    d="M42 13.125c0-.859-.326-1.58-.874-2.079a2.8 2.8 0 0 0-1.873-.71 2.78 2.78 0 0 0-1.878.705c-.551.5-.875 1.223-.875 2.084 0 .851.3 1.56.888 2.06.207.176.436.314.674.422-.324.23-.636.423-.893.573C35.352 14.218 32.812 13 30 13q-.79.001-1.548.125h-8.244c-3.664 0-6.022.5-7.647 1.285-1.921-.88-3.416-.98-5.303-.297-.618.224-1.28.532-2.01.926a29 29 0 0 1 1.623 1.414c.743.703 1.312 1.35 1.78 2.023C7.68 20.107 6.667 21.736 4 22.75v4.369c1.98 1.947 5.972 3.291 9.108 2.852.574 1.34 1.61 2.126 2.892 2.56V36a1 1 0 0 0-1 1v1h4v-5.005c1.72.043 3.56-.183 5.207-.385l.683-.083A9.6 9.6 0 0 0 31 33.948V36a1 1 0 0 0-1 1v1h4v-4.874c3.532-1.62 6-5.32 6-9.626 0-2.11-.592-4.073-1.612-5.718.36-.218.79-.5 1.224-.835a9 9 0 0 0 1.033-.923q.258 0 .506-.006c.267-.006.513-.015.747-.023.348-.013.67-.025.99-.025a1 1 0 1 0 0-2c-.31 0-.662.012-1.008.024.076-.275.12-.566.12-.87m-2 0c0 .25-.087.536-.282.856l-.19-.025c-.46-.07-.715-.185-.844-.295-.083-.07-.184-.19-.184-.536 0-.336.114-.508.219-.603a.79.79 0 0 1 .529-.185c.218 0 .408.076.532.19.108.097.22.269.22.598M23.91 30.632c-.399-1.088-.465-2.375-.41-3.774a1 1 0 1 1 2 .08c-.076 1.889.13 2.98.633 3.657.247.332.759.724 1.34.958q.061.024.116.055c.761.255 1.57.392 2.411.392 4.327 0 8-3.712 8-8.5S34.327 15 30 15q-.627 0-1.226.099l-.16.026h-8.406c-3.508 0-5.53.484-6.778 1.086l-.847.41-.855-.393c-1.059-.484-1.791-.61-2.488-.547a4 4 0 0 0-.275.035c.502.53.94 1.059 1.328 1.617l.737 1.059-.66 1.108C9.49 20.976 8.4 22.761 6 24.037v2.158c.702.514 1.647.993 2.73 1.34 1.423.456 2.897.624 4.1.456l1.514-.212.602 1.405c.41.955 1.287 1.528 3.013 1.736 1.753.211 3.846-.03 5.952-.288"
    clip-rule="evenodd"
  />
</svg>
